X: 1
T: Last House In The Village
M: 4/4
L: 1/8
R: reel
K: Dmaj
&quot;Gmaj7&quot;B2AF EFDE | FAAF ~A2FA | BFAF EFDE |1 FAdc B3A :|2 FAdc B3c ||
&quot;Bm7&quot;dBAF ABde | ~f2ef dB~B2 | &quot;Bm7/A&quot;dBAF ABde | ~f2ef d3c |
&quot;Gmaj7&quot;dBAF ABde | ~f2ef dB~B2 | &quot;(Em)&quot;dBAF ABde | &quot;G&quot;faba &quot;A&quot;fe~e2 ||
